svgs/sharp-light/bracket-curly.svg

<svg xmlns="http://www.w3.org/2000/svg" viewBox="0 0 256 512"><!--! Font Awesome Pro 6.6.0 by @fontawesome - https://fontawesome.com License - https://fontawesome.com/license (Commercial License) Copyright 2024 Fonticons, Inc. --><path d="M80 32L64 32l0 16 0 137.4L4.7 244.7 0 249.4l0 13.3 4.7 4.7L64 326.6 64 464l0 16 16 0 128 0 16 0 0-32-16 0L96 448l0-128 0-6.6-4.7-4.7L38.6 256l52.7-52.7 4.7-4.7 0-6.6L96 64l112 0 16 0 0-32-16 0L80 32z"/></svg>

<svg xmlns="http://www.w3.org/2000/svg" viewBox="0 0 256 512"><!--! Font Awesome Pro 6.4.0 by @fontawesome - https://fontawesome.com License - https://fontawesome.com/license (Commercial License) Copyright 2023 Fonticons, Inc. --><path d="M80 32H64V48 185.4L4.7 244.7 0 249.4v13.3l4.7 4.7L64 326.6V464v16H80 208h16V448H208 96V320v-6.6l-4.7-4.7L38.6 256l52.7-52.7 4.7-4.7V192 64H208h16V32H208 80z"/></svg>
